icons/lines/scan.svg

<svg xmlns="http://www.w3.org/2000/svg" width="24" height="24" viewBox="0 0 24 24" fill="none" stroke="currentColor" stroke-width="2" stroke-linecap="round" stroke-linejoin="round">
  <path d="M15 2h2.5A4.494 4.494 0 0 1 22 6.5V9" />
  <path d="M17 14.5q0 3-3 3h-4q-3 0-3-3v-5q0-3 3-3h4q3 0 3 3z" />
  <path d="M19 12H5" />
  <path d="M2 9V6.5A4.494 4.494 0 0 1 6.5 2H9" />
  <path d="M22 16v1.5a4.494 4.494 0 0 1-4.5 4.5H16" />
  <path d="M9 22H6.5A4.494 4.494 0 0 1 2 17.5V15" />
</svg>

<svg xmlns="http://www.w3.org/2000/svg" width="24" height="24" viewBox="0 0 24 24" fill="none" stroke="currentColor" stroke-width="2" stroke-linecap="round" stroke-linejoin="round" >
  <path d="M2 9V6.5C2 4.01 4.01 2 6.5 2H9"/>
  <path d="M15 2H17.5C19.99 2 22 4.01 22 6.5V9"/>
  <path d="M22 16V17.5C22 19.99 19.99 22 17.5 22H16"/>
  <path d="M9 22H6.5C4.01 22 2 19.99 2 17.5V15"/>
  <path d="M17 9.5V14.5C17 16.5 16 17.5 14 17.5H10C8 17.5 7 16.5 7 14.5V9.5C7 7.5 8 6.5 10 6.5H14C16 6.5 17 7.5 17 9.5Z"/>
  <path d="M19 12H5"/>
  </svg>
